X:7
T:Suite complète (résumé)
M:4/4
L:1/8
R:reel
Q:1/2=100
%
|d4 d2d2 |
%
% The Fermoye Lasses
%
K:Em
|: GEEE BEEF | GFGA B2BA | GEEE BEEB | AFDF AcBA |
   GEEE BEEF | GFGA B2BA | G2GF GBdB | AFDF AcBA :|
|: G2BG dGBG | GGBd efg2 | G2BG dGBG | AFDF AcBA |
   G2BG dGBG | GGBd efg2 | gage dedB | AFDF AcBA :|
%
|: GEEE BEEF | GFGA B2BA | GEEE BEEB | AFDF AcBA |
   GEEE BEEF | GFGA B2BA | G2GF GBdB | AFDF AcBA :|
|: G2BG dGBG | GGBd efg2 | G2BG dGBG | AFDF AcBA |
   G2BG dGBG | GGBd efg2 | gage dedB | AFDF AcBA :|
%
% Rakish Paddy
%
K:Dmix
|:c4 c2 AB|cBAG Ec c2|Add^c defe| dcAG FGAB|
c4 c2 AB|cBAG EDCE|DEFG ABcA|dcAG F2 D2:|
|:eg g2 ag g2|eg g2 ed^cd|ea a2 ba a2|ea a2 egdg|
eg g2 ag g2|fed^c defg|afge fde^c|dcAG F2 D2:|
%
|:c4 c2 AB|cBAG Ec c2|Add^c defe| dcAG FGAB|
c4 c2 AB|cBAG EDCE|DEFG ABcA|dcAG F2 D2:|
|:eg g2 ag g2|eg g2 ed^cd|ea a2 ba a2|ea a2 egdg|
eg g2 ag g2|fed^c defg|afge fde^c|dcAG F2 D2:|
%
% Bill Harte's
%
K:G
|: DEGA BGGG | BGdB ABGE | DEGA Beed |1 BAAB A2GE :|2 BAAB A4
|: eAAA Bdeg | dGGF G2Bd |1 eAAA Bdeg | dBGB A4 :|2 eggg edea | gedB ABGE |
%
|: DEGA BGGG | BGdB ABGE | DEGA Beed |1 BAAB A2GE :|2 BAAB A4
|: eAAA Bdeg | dGGF G2Bd |1 eAAA Bdeg | dBGB A4 :|2 eggg edea | gedB ABGE |
%
|: DEGA BGGG | BGdB ABGE | DEGA Beed |1 BAAB A2GE :|2 BAAB A4
|: eAAA Bdeg | dGGF G2Bd |1 eAAA Bdeg | dBGB A4 :|2 eggg edea | gedB ABGE |
%

